dist/assets/img/icons/profile.svg

<svg width="33" height="33" viewBox="0 0 33 33" fill="none" xmlns="http://www.w3.org/2000/svg">
<circle opacity="0.2" cx="16.5" cy="16.5" r="16.5" fill="white"/>
<path d="M16.9049 16.4214C18.9967 16.4214 20.6506 14.7517 20.6506 12.7482C20.6506 10.6969 18.948 9.07495 16.9049 9.07495C14.8618 9.07495 13.1592 10.6969 13.1592 12.7005C13.1592 14.7517 14.8618 16.4214 16.9049 16.4214ZM23.472 19.8084C22.0613 18.4727 18.7534 18.1864 16.9049 18.1864C15.0564 18.1864 11.7485 18.4727 10.3865 19.8084C9.94867 20.19 9.90002 20.8579 9.90002 20.8579C9.90002 22.0982 10.7756 23.1 11.8458 23.1H21.964C23.0342 23.1 23.9098 22.0982 23.9098 20.8579C23.9585 20.8579 23.9098 20.19 23.472 19.8084Z" fill="white"/>
</svg>

<svg width="33" height="33" fill="none" xmlns="http://www.w3.org/2000/svg"><circle opacity=".2" cx="16.5" cy="16.5" r="16.5" fill="#fff"/><path d="M16.905 16.421c2.092 0 3.746-1.67 3.746-3.673 0-2.051-1.703-3.673-3.746-3.673s-3.746 1.622-3.746 3.626c0 2.05 1.703 3.72 3.746 3.72zm6.567 3.387c-1.41-1.335-4.719-1.622-6.567-1.622-1.849 0-5.157.287-6.519 1.622-.437.382-.486 1.05-.486 1.05 0 1.24.876 2.242 1.946 2.242h10.118c1.07 0 1.946-1.002 1.946-2.242.049 0 0-.668-.438-1.05z" fill="#fff"/></svg>
